static/assets/images/tokens/usdc.svg

<svg width="256" height="256" viewBox="0 0 256 256" fill="none" xmlns="http://www.w3.org/2000/svg">
<path fill-rule="evenodd" clip-rule="evenodd" d="M128 0C198.693 0 256 57.3074 256 128C256 198.693 198.693 256 128 256C57.3074 256 0 198.693 0 128C0 57.3074 57.3074 0 128 0ZM157.247 37.8699C154.36 36.9478 152 38.661 152 41.6914V49.144C152 51.1759 153.532 53.4884 155.439 54.1877C186.076 65.409 208 94.857 208 129.334C208 163.81 186.076 193.257 155.439 204.479C153.347 205.246 152 207.295 152 209.523V216.976C152 220.005 154.36 221.719 157.247 220.797C195.964 208.427 224 172.154 224 129.334C224 86.5124 195.964 50.2403 157.247 37.8699ZM104 41.6914C104 38.661 101.64 36.9478 98.7538 37.8699C60.036 50.2403 32 86.5124 32 129.334C32 172.154 60.036 208.427 98.7538 220.797C101.64 221.719 104 220.005 104 216.976V209.523C104 207.491 102.469 205.178 100.561 204.479C69.9241 193.257 48 163.81 48 129.334C48 94.857 69.9241 65.409 100.561 54.1877C102.469 53.4884 104 51.1759 104 49.144V41.6914ZM132 65.3337H124C121.791 65.3337 120 67.1242 120 69.3333V81.7257C104.141 83.9805 93.8883 94.5348 93.8883 108.075C93.8883 125.601 104.483 132.401 126.846 135.41C142.017 137.896 146.336 141.163 146.336 149.797C146.336 158.428 139.008 164.183 128.679 164.183C114.713 164.183 110.117 158.072 108.422 150.162C108.02 148.288 106.415 146.918 104.499 146.918H95.3741C93.0756 146.918 91.2786 148.988 91.6736 151.252C93.9972 164.567 102.548 174.336 120 176.704V189.334C120 191.543 121.791 193.334 124 193.334H132C134.209 193.334 136 191.543 136 189.334V176.697C152.521 174.073 163.077 162.572 163.077 148.358C163.077 129.655 151.697 123.376 129.723 120.37C113.505 118.015 110.369 114.221 110.369 106.635C110.369 99.4435 115.86 94.3405 126.455 94.3405C136.038 94.3405 141.549 97.6851 143.826 105.397C144.334 107.118 145.874 108.335 147.669 108.335H156.084C158.43 108.335 160.257 106.179 159.756 103.886C157.092 91.6982 148.878 84.3846 136 82.0776V69.3333C136 67.1242 134.209 65.3337 132 65.3337Z" fill="#477BFF"/>
<path d="M157.247 37.8699C154.36 36.9478 152 38.661 152 41.6914V49.144C152 51.1759 153.532 53.4884 155.439 54.1877C186.076 65.409 208 94.857 208 129.334C208 163.81 186.076 193.257 155.439 204.479C153.347 205.246 152 207.295 152 209.523V216.976C152 220.005 154.36 221.719 157.247 220.797C195.964 208.427 224 172.154 224 129.334C224 86.5124 195.964 50.2403 157.247 37.8699Z" fill="white"/>
<path d="M132 65.3337H124C121.791 65.3337 120 67.1242 120 69.3333V81.7257C104.141 83.9805 93.8883 94.5348 93.8883 108.075C93.8883 125.601 104.483 132.401 126.846 135.41C142.017 137.896 146.336 141.163 146.336 149.797C146.336 158.428 139.008 164.183 128.679 164.183C114.713 164.183 110.117 158.072 108.422 150.162C108.02 148.288 106.415 146.918 104.499 146.918H95.3741C93.0756 146.918 91.2786 148.988 91.6736 151.252C93.9972 164.567 102.548 174.336 120 176.704V189.334C120 191.543 121.791 193.334 124 193.334H132C134.209 193.334 136 191.543 136 189.334V176.697C152.521 174.073 163.077 162.572 163.077 148.358C163.077 129.655 151.697 123.376 129.723 120.37C113.505 118.015 110.369 114.221 110.369 106.635C110.369 99.4435 115.86 94.3405 126.455 94.3405C136.038 94.3405 141.549 97.6851 143.826 105.397C144.334 107.118 145.874 108.335 147.669 108.335H156.084C158.43 108.335 160.257 106.179 159.756 103.886C157.092 91.6982 148.878 84.3846 136 82.0776V69.3333C136 67.1242 134.209 65.3337 132 65.3337Z" fill="white"/>
<path d="M104 41.6914C104 38.661 101.64 36.9478 98.7538 37.8699C60.036 50.2403 32 86.5124 32 129.334C32 172.154 60.036 208.427 98.7538 220.797C101.64 221.719 104 220.005 104 216.976V209.523C104 207.491 102.469 205.178 100.561 204.479C69.9241 193.257 48 163.81 48 129.334C48 94.857 69.9241 65.409 100.561 54.1877C102.469 53.4884 104 51.1759 104 49.144V41.6914Z" fill="white"/>
</svg>

<svg xmlns="http://www.w3.org/2000/svg" fill="none" viewBox="0 0 256 256"><path fill="#477BFF" fill-rule="evenodd" d="M128 0c70.693 0 128 57.307 128 128s-57.307 128-128 128S0 198.693 0 128 57.307 0 128 0m29.247 37.87c-2.887-.922-5.247.791-5.247 3.821v7.453c0 2.032 1.532 4.344 3.439 5.044C186.076 65.409 208 94.857 208 129.334c0 34.476-21.924 63.923-52.561 75.145-2.092.767-3.439 2.816-3.439 5.044v7.453c0 3.029 2.36 4.743 5.247 3.821C195.964 208.427 224 172.154 224 129.334c0-42.822-28.036-79.094-66.753-91.464M104 41.69c0-3.03-2.36-4.743-5.246-3.821C60.036 50.24 32 86.512 32 129.334c0 42.82 28.036 79.093 66.754 91.463 2.886.922 5.246-.792 5.246-3.821v-7.453c0-2.032-1.531-4.345-3.439-5.044C69.924 193.257 48 163.81 48 129.334s21.924-63.925 52.561-75.146c1.908-.7 3.439-3.012 3.439-5.044zm28 23.643h-8a4 4 0 0 0-4 4v12.392c-15.859 2.255-26.112 12.809-26.112 26.349 0 17.526 10.595 24.326 32.958 27.335 15.171 2.486 19.49 5.753 19.49 14.387 0 8.631-7.328 14.386-17.657 14.386-13.966 0-18.562-6.111-20.257-14.021-.402-1.874-2.007-3.244-3.923-3.244h-9.125c-2.298 0-4.095 2.07-3.7 4.334 2.323 13.315 10.874 23.084 28.326 25.452v12.63a4 4 0 0 0 4 4h8a4 4 0 0 0 4-4v-12.637c16.521-2.624 27.077-14.125 27.077-28.339 0-18.703-11.38-24.982-33.354-27.988-16.218-2.355-19.354-6.149-19.354-13.735 0-7.192 5.491-12.294 16.086-12.294 9.583 0 15.094 3.344 17.371 11.056.508 1.721 2.048 2.938 3.843 2.938h8.415c2.346 0 4.173-2.156 3.672-4.449-2.664-12.188-10.878-19.501-23.756-21.808V69.333a4 4 0 0 0-4-4" clip-rule="evenodd"/><path fill="#fff" d="M157.247 37.87c-2.887-.922-5.247.791-5.247 3.821v7.453c0 2.032 1.532 4.344 3.439 5.044C186.076 65.409 208 94.857 208 129.334c0 34.476-21.924 63.923-52.561 75.145-2.092.767-3.439 2.816-3.439 5.044v7.453c0 3.029 2.36 4.743 5.247 3.821C195.964 208.427 224 172.154 224 129.334c0-42.822-28.036-79.094-66.753-91.464"/><path fill="#fff" d="M132 65.334h-8a4 4 0 0 0-4 4v12.392c-15.859 2.255-26.112 12.809-26.112 26.349 0 17.526 10.595 24.326 32.958 27.335 15.171 2.486 19.49 5.753 19.49 14.387 0 8.631-7.328 14.386-17.657 14.386-13.966 0-18.562-6.111-20.257-14.021-.402-1.874-2.007-3.244-3.923-3.244h-9.125c-2.298 0-4.095 2.07-3.7 4.334 2.323 13.315 10.874 23.084 28.326 25.452v12.63a4 4 0 0 0 4 4h8a4 4 0 0 0 4-4v-12.637c16.521-2.624 27.077-14.125 27.077-28.339 0-18.703-11.38-24.982-33.354-27.988-16.218-2.355-19.354-6.149-19.354-13.735 0-7.192 5.491-12.294 16.086-12.294 9.583 0 15.094 3.344 17.371 11.056.508 1.721 2.048 2.938 3.843 2.938h8.415c2.346 0 4.173-2.156 3.672-4.449-2.664-12.188-10.878-19.501-23.756-21.808V69.333a4 4 0 0 0-4-4"/><path fill="#fff" d="M104 41.691c0-3.03-2.36-4.743-5.246-3.821C60.036 50.24 32 86.512 32 129.334c0 42.82 28.036 79.093 66.754 91.463 2.886.922 5.246-.792 5.246-3.821v-7.453c0-2.032-1.531-4.345-3.439-5.044C69.924 193.257 48 163.81 48 129.334s21.924-63.925 52.561-75.146c1.908-.7 3.439-3.012 3.439-5.044z"/></svg>
